X: 124
T:Paddy's Polka  No.1
M:2/4
L:1/16
C:Trad
S:Josephine Marsh
R:Polka
N:Flute/whistle players play bars 3,4,7 &amp; 8 an octave up
Z:Richard Moon
K:Dm
A2D2 E2D2|A2D2 E2D2|C3D E2G2|C2D2 E2G2|A2D2 E2D2|A2D2 E2D2|C3E G2C2|E2D2
  D4:||!
A2d2 d2cd|e2d2 c2G2|A2d2 d2cd|e2d2 c4|A2d2 d2cd|e2d2 c2G2|A2G2 c2C2|E2D2
  D4:||

